images_sukapura_svg/cmd/sc_datafilterstandardfilter.svg

<svg viewBox="0 0 16 16" xmlns="http://www.w3.org/2000/svg">/&amp;amp;gt;<g fill-rule="evenodd"><path d="m.50195312 1.9980469.00195313.6503906-.00195313.6640625 5.99804688 5.6132812-.0019531 6.3984378 1.5019531.009766 1.4980469-.009766.0019531-6.3984378 6-5.6132812-.001953-.6640625.001953-.6503906h-.002-14.99409375zm6.00000008 13.3261721v.173828h.2011718zm2.9960937 0-.2011719.173828h.2011719z" fill="#848489"/><path d="m.50195312 1.4960938c-.1380893-.0001496-.262744.0562999-.35351562.1464843-.09153834.0909462-.14856453.2162129-.1484375.3554688l.00195313.6503906-.00195313.6640625c-.00003865.1412881.05953385.2760352.1640625.3710938l5.8359375 5.5332031v5.7832031.5.5h4v-.5-.5-5.7832031l5.837891-5.5332031c.104528-.0950585.164101-.2298057.164062-.3710938l-.001953-.6640625.001953-.6503906c.000127-.1392559-.0569-.2645226-.148437-.3554688-.04505-.045047-.09873-.0820689-.158204-.1074219h-.001953c-.059504-.0251324-.124752-.038869-.193359-.0390624h-.001953zm.50195308 1.0039062h13.9941408v.2871094.2734375l-3.253906 2.9746093c.0063-.00173.013161-.000356.019531-.0019531l-2.6015626 2.5234375c-.1040267.0946003-.1635524.2968923-.1640625.4375l.0019531 6.0058594h-2l.0019531-6.0058594c-.0005101-.1406077-.0600357-.2745403-.1640625-.3691406l-2.5996094-2.5917969c.0063701.0016.0131933.0002301.0195313.0019531l-3.2539063-2.9746093v-.2734375z" fill="#69696e"/></g><ellipse cx="8" cy="1.765338" fill="#cdcdd0" rx="7.5" ry="1.264185" stroke="#69696e" stroke-linecap="round" stroke-linejoin="round" stroke-width="1.002306"/></svg>

<?xml version="1.0" encoding="UTF-8" standalone="no"?>
<svg
   xmlns:dc="http://purl.org/dc/elements/1.1/"
   xmlns:cc="http://creativecommons.org/ns#"
   xmlns:rdf="http://www.w3.org/1999/02/22-rdf-syntax-ns#"
   xmlns:svg="http://www.w3.org/2000/svg"
   xmlns="http://www.w3.org/2000/svg"
   xmlns:sodipodi="http://sodipodi.sourceforge.net/DTD/sodipodi-0.dtd"
   xmlns:inkscape="http://www.inkscape.org/namespaces/inkscape"
   viewBox="0 0 16 16"
   version="1.1"
   id="svg10"
   sodipodi:docname="sc_datafilterstandardfilter.svg"
   inkscape:version="0.92.3 (unknown)"
   inkscape:export-filename="/home/rizmut/Dokumen/Rizmut/Github/libreoffice-style-sukapura/images_sukapura/cmd/sc_datafilterstandardfilter.png"
   inkscape:export-xdpi="96"
   inkscape:export-ydpi="96"><metadata
   id="metadata16">
  <rdf:RDF>
    <cc:Work
       rdf:about="">
      <dc:format>image/svg+xml</dc:format>
      <dc:type
         rdf:resource="http://purl.org/dc/dcmitype/StillImage" />
      <dc:title></dc:title>
    </cc:Work>
  </rdf:RDF>
</metadata>
<defs
   id="defs14" />
<sodipodi:namedview
   pagecolor="#ffffff"
   bordercolor="#666666"
   borderopacity="1"
   objecttolerance="10"
   gridtolerance="10"
   guidetolerance="10"
   inkscape:pageopacity="0"
   inkscape:pageshadow="2"
   inkscape:window-width="1366"
   inkscape:window-height="706"
   id="namedview12"
   showgrid="true"
   inkscape:zoom="8"
   inkscape:cx="7.8025146"
   inkscape:cy="-2.2268584"
   inkscape:window-x="0"
   inkscape:window-y="0"
   inkscape:window-maximized="1"
   inkscape:current-layer="svg10">
  <inkscape:grid
     type="xygrid"
     id="grid823"
     spacingx="0.5"
     spacingy="0.5"
     empspacing="2" />
</sodipodi:namedview>




     /&amp;gt;
 <g
   id="g8"
   fill-rule="evenodd">
  <path
     style="fill:#848489;fill-opacity:1;stroke:none"
     d="M 0.50195312,1.9980469 0.50390625,2.6484375 0.50195312,3.3125 6.5,8.9257812 6.4980469,15.324219 8,15.333985 9.4980469,15.324219 9.5,8.9257812 15.5,3.3125 15.498047,2.6484375 15.5,1.9980469 H 15.498 0.50390625 Z M 6.5019532,15.324219 v 0.173828 H 6.703125 Z m 2.9960937,0 -0.2011719,0.173828 h 0.2011719 z"
     id="path2"
     inkscape:connector-curvature="0"
     sodipodi:nodetypes="cccccccccccccccccccccc" />
  <path
     style="fill:#69696e;fill-opacity:1"
     d="M 0.50195312 1.4960938 C 0.36386382 1.4959442 0.23920912 1.5523937 0.1484375 1.6425781 C 0.05689916 1.7335243 -0.000127032 1.858791 0 1.9980469 L 0.001953125 2.6484375 L 0 3.3125 C -3.865e-05 3.4537881 0.05953385 3.5885352 0.1640625 3.6835938 L 6 9.2167969 L 6 15 L 6 15.5 L 6 16 L 10 16 L 10 15.5 L 10 15 L 10 9.2167969 L 15.837891 3.6835938 C 15.942419 3.5885353 16.001992 3.4537881 16.001953 3.3125 L 16 2.6484375 L 16.001953 1.9980469 C 16.00208 1.858791 15.945053 1.7335243 15.853516 1.6425781 C 15.808466 1.5975311 15.754786 1.5605092 15.695312 1.5351562 C 15.695312 1.5351562 15.693359 1.5351562 15.693359 1.5351562 C 15.633855 1.5100238 15.568607 1.4962872 15.5 1.4960938 L 15.498047 1.4960938 L 0.50195312 1.4960938 z M 1.0039062 2.5 L 14.998047 2.5 L 14.998047 2.7871094 L 14.998047 3.0605469 L 11.744141 6.0351562 C 11.750441 6.0334262 11.757302 6.0348002 11.763672 6.0332031 L 9.1621094 8.5566406 C 9.0580827 8.6512409 8.998557 8.8535329 8.9980469 8.9941406 L 9 15 L 7 15 L 7.0019531 8.9941406 C 7.001443 8.8535329 6.9419174 8.7196003 6.8378906 8.625 L 4.2382812 6.0332031 C 4.2446513 6.0348031 4.2514745 6.0334332 4.2578125 6.0351562 L 1.0039062 3.0605469 L 1.0039062 2.7871094 L 1.0039062 2.5 z "
     id="path4" />
</g>
<ellipse
   style="opacity:1;fill:#cdcdd0;fill-opacity:1;stroke:#69696e;stroke-width:1.00230575;stroke-linecap:round;stroke-linejoin:round;stroke-miterlimit:4;stroke-dasharray:none;stroke-opacity:1"
   id="path832"
   ry="1.2641851"
   rx="7.5"
   cy="1.7653379"
   cx="8" />
<g
   id="g821"
   transform="matrix(-1,0,0,1,16.002,0)"
   style="fill-rule:evenodd" />
</svg>
